src/assets/wave.svg

<svg xmlns="http://www.w3.org/2000/svg" preserveAspectRatio="none" viewBox="0 0 1440 320"><path fill="#F08F00" d="m0 96 48 16c48 16 144 48 240 53.3 96 5.7 192-16.3 288-16 96-.3 192 21.7 288 16 96-5.3 192-37.3 288-48 96-10.3 192-.3 240 5.4l48 5.3v192H0Z"/></svg>

<svg xmlns="http://www.w3.org/2000/svg" viewBox="0 0 1440 320" preserveAspectRatio="none">
  <path fill="#F08F00" fill-opacity="1" d="M0,96L48,112C96,128,192,160,288,165.3C384,171,480,149,576,149.3C672,149,768,171,864,165.3C960,160,1056,128,1152,117.3C1248,107,1344,117,1392,122.7L1440,128L1440,320L1392,320C1344,320,1248,320,1152,320C1056,320,960,320,864,320C768,320,672,320,576,320C480,320,384,320,288,320C192,320,96,320,48,320L0,320Z"></path>
</svg>
